public/icons/okz-white.svg

<svg viewBox="0 0 8334 8334" xmlns="http://www.w3.org/2000/svg" xml:space="preserve" style="fill-rule:evenodd;clip-rule:evenodd;stroke-linejoin:round;stroke-miterlimit:2"><path style="fill:none" d="M0 0h2000v2000H0z" transform="scale(4.16667)"/><path d="m0 123.645-7.784 7.655-18.294 18.035-49.304 48.783h-479.534l-49.303-48.783-18.293-18.035-7.786-7.655V-7.136l68.116-68.246h182.55l-63.575 63.573 128.059 128.189 128.057-128.189-63.575-63.573h182.551L0-7.136v130.781Zm7.266-379.761h-644.829L-811.161-81.609v279.727l180.863 181.643H0l180.734-181.643V-81.609L7.266-256.116Z" style="fill:#fff;fill-rule:nonzero" transform="matrix(8.22667 0 0 8.22667 6759.839 3658.078)"/></svg>

<?xml version="1.0" encoding="UTF-8" standalone="no"?>
<!DOCTYPE svg PUBLIC "-//W3C//DTD SVG 1.1//EN" "http://www.w3.org/Graphics/SVG/1.1/DTD/svg11.dtd">
<svg width="100%" height="100%" viewBox="0 0 8334 8334" version="1.1" xmlns="http://www.w3.org/2000/svg" xmlns:xlink="http://www.w3.org/1999/xlink" xml:space="preserve" xmlns:serif="http://www.serif.com/" style="fill-rule:evenodd;clip-rule:evenodd;stroke-linejoin:round;stroke-miterlimit:2;">
    <g transform="matrix(1,0,0,1,-37500,-9375)">
        <g id="Page-10" serif:id="Page 10" transform="matrix(4.16667,0,0,4.16667,37500,9375)">
            <rect x="0" y="0" width="2000" height="2000" style="fill:none;"/>
            <g transform="matrix(1.97591,0,0,1.97591,1622.83,877.845)">
                <g id="Background">
                    <path d="M0,123.645L-7.784,131.3L-26.078,149.335L-75.382,198.118L-554.916,198.118L-604.219,149.335L-622.512,131.3L-630.298,123.645L-630.298,-7.136L-562.182,-75.382L-379.632,-75.382L-443.207,-11.809L-315.148,116.38L-187.091,-11.809L-250.666,-75.382L-68.115,-75.382L0,-7.136L0,123.645ZM7.266,-256.116L-637.563,-256.116L-811.161,-81.609L-811.161,198.118L-630.298,379.761L0,379.761L180.734,198.118L180.734,-81.609L7.266,-256.116Z" style="fill:#fff;fill-rule:nonzero;"/>
                </g>
            </g>
            <g id="Layer-1" serif:id="Layer 1">
            </g>
        </g>
    </g>
</svg>
